X: 74
T: No_165_Hair_Dance_Song_(c).krn
N: Derived from No_165_Hair_Dance_Song_(c).krn
%%abc-version 2.0
%%abcx-abcm2ps-target-version 5.9.1 (29 Sep 2008)
%%abc-creator hum2abc beta
%%abcx-conversion-date 2019/03/15 08:38:45
%%humdrum-veritas 3753759971
%%humdrum-veritas-data 2581254886
%%linebreak <none>
%%barnumbers 0
L: 1/8
M: 2/4
K: E clef=bass
[K:clef=bass][M:2/4]z2z3/ C/ | 
B,3/C/ B,(B,/G,/) ]|:  
F,3/E,/ E,3/F,/ | 
C,3/B,,/ B,, z ||  
[M:3/4]B,,2B,,F, B,, z ||  
[M:5/8]B,,2C,B,,B,, | 
F,2E,F,2 ||  
[M:3/4]E,C,B,,2z2 | 
B,,2(3C,B,,B,, B,,3/B,,/ ||  
[M:2/4]B,,3/B,,/ F,3/F,/ | 
C,3/B,,/ B,, z ||  
[M:3/4]B,,2B,,F, B,, z | 
B,,2(3C,B,,B,, B,,3/C,/ ||  
[M:2/4]B,,3/C,/ B,, z/ B,/ | 
B,3/G,/ B,3/B,/ :|]  
[M:3/4]B,,3/C,/B,,2z2 |]  



